X:1
T:Sweet William's Ghost
M:3/4
L:1/8
K:A
 z4 E2| A3 GF A| GB F3 E| AA A2(2B3.99999962500005/5.99999925000009B3.99999962500005/5.99999925000009c3.99999962500005/5.99999925000009 e3.99999962500005/5.99999925000009|\
 f4 c2| d3 fe A| GA/2-B/2 F3 E| E2 e2 c3/2 B/2| A4 z2|

